svgs/thin/circle-question.svg

<svg xmlns="http://www.w3.org/2000/svg" viewBox="0 0 512 512"><!-- Font Awesome Pro 6.0.0-alpha2 by @fontawesome - https://fontawesome.com License - https://fontawesome.com/license (Commercial License) --><path d="M240 352C231.164 352 224 359.164 224 368S231.164 384 240 384S256 376.836 256 368S248.836 352 240 352ZM288.594 128H223.406C188.438 128 160 156.438 160 191.406V202C160 206.422 163.594 210 168 210S176 206.422 176 202V191.406C176 165.266 197.281 144 223.406 144H288.594C314.719 144 336 165.266 336 191.406C336 208.609 326.656 224.484 311.938 232.672L245.844 265.719C236.312 270.984 230.406 281.031 230.406 291.938V312C230.406 316.422 234 320 238.406 320C242.812 320 246.406 316.422 246.406 312V291.938C246.406 286.859 249.156 282.172 253.281 279.875L319.375 246.828C339.5 235.656 352 214.422 352 191.406C352 156.438 323.562 128 288.594 128ZM256 16C123.451 16 16 123.451 16 256S123.451 496 256 496S496 388.549 496 256S388.549 16 256 16ZM256 480C132.486 480 32 379.514 32 256S132.486 32 256 32S480 132.486 480 256S379.514 480 256 480Z"/></svg>

<svg xmlns="http://www.w3.org/2000/svg" viewBox="0 0 512 512"><!--! Font Awesome Pro 6.3.0 by @fontawesome - https://fontawesome.com License - https://fontawesome.com/license (Commercial License) Copyright 2023 Fonticons, Inc. --><path d="M288.6 128H223.4C188.4 128 160 156.4 160 191.4V202c0 4.422 3.594 8 8 8s8-3.578 8-8V191.4C176 165.3 197.3 144 223.4 144h65.19C314.7 144 336 165.3 336 191.4c0 17.2-9.344 33.08-24.06 41.27L245.8 265.7C236.3 270.1 230.4 281 230.4 291.9V312c0 4.422 3.593 8 8 8c4.406 0 8-3.578 8-8V291.9c0-5.078 2.75-9.766 6.875-12.06l66.09-33.05C339.5 235.7 352 214.4 352 191.4C352 156.4 323.6 128 288.6 128zM240 352C231.2 352 224 359.2 224 368S231.2 384 240 384s16-7.164 16-16S248.8 352 240 352zM256 0C114.6 0 0 114.6 0 256s114.6 256 256 256s256-114.6 256-256S397.4 0 256 0zM256 496c-132.3 0-240-107.7-240-240S123.7 16 256 16s240 107.7 240 240S388.3 496 256 496z"/></svg>
